X: 20243
T: Joe Derrane's
R: barndance
M: 4/4
K: Dmajor
|:BFDF B2cB|AFDF ABcd|eBGB efgf|(3efe (3dcB A2 dc|
BFDF B2cB|AFDF ABcd|efge cdec|1 d2 f2 d3 c:|2 d2 f2 d2 cd||
edcd efgf|edcd (3efe de|fdAd fd (3efg|fdAd f2 ef|
gfed cdef|edcd e3f|gfed cdef|(3efe ce d2 cd|
edcd efgf|edcd eAde|fdAd fd (3efg|fdAd f2 ef|
gfed cdef|edcd efgf|eA (3AAA eaag|fgec d4||

